icons/outline/zoom-in-area.svg

<!--
tags: [selected, square, magnifier, enlargement]
category: Map
version: "1.68"
unicode: "f1dc"
-->
<svg
  xmlns="http://www.w3.org/2000/svg"
  width="24"
  height="24"
  viewBox="0 0 24 24"
  fill="none"
  stroke="currentColor"
  stroke-width="2"
  stroke-linecap="round"
  stroke-linejoin="round"
>
  <path d="M15 13v4m-2 -2h4m-2 0m-5 0a5 5 0 1 0 10 0a5 5 0 1 0 -10 0m12 7l-3 -3m-13 -1h-1a2 2 0 0 1 -2 -2v-1m0 -4v-1m0 -4v-1a2 2 0 0 1 2 -2h1m4 0h1m4 0h1a2 2 0 0 1 2 2v1" />
</svg>

<!--
tags: [selected, square, magnifier, enlargement]
category: Map
version: "1.68"
unicode: "f1dc"
-->
<svg
  xmlns="http://www.w3.org/2000/svg"
  width="24"
  height="24"
  viewBox="0 0 24 24"
  fill="none"
  stroke="currentColor"
  stroke-width="2"
  stroke-linecap="round"
  stroke-linejoin="round"
>
    <path d="M15 13v4M13 15h4M15 15m-5 0a5 5 0 1 0 10 0a5 5 0 1 0 -10 0M22 22l-3 -3M6 18h-1a2 2 0 0 1 -2 -2v-1M3 11v-1M3 6v-1a2 2 0 0 1 2 -2h1M10 3h1M15 3h1a2 2 0 0 1 2 2v1" />
</svg>
